X: 100091
M: C|
L: 1/8
K: C
(uef) |\
gage f(g/a/) fd | e(f/g/) ec dfdB | cG,A,B, CDEF | Ggfe {e}d2(ef) |
gage fafd | egec dfdB | cEFG AcBd | GcBd c2 :|
|: (ugf) |\
eg {ag^f}g2 dg~g2 | gafg efde | c(G {AG^F}G2 E)G~G2 | cEGc {c}B2(G,A,/B,/) |


